img/layouts.svg

<svg width="53" height="42" viewBox="0 0 53 42" fill="none" xmlns="http://www.w3.org/2000/svg">
<g clip-path="url(#clip0_1_73)">
<path d="M39.763 23.761L39.759 23.762L38.587 24.124L44.425 18.296L49.266 20.829L39.763 23.761ZM11.448 18.597L7.248 22.797L3.815 20.997L11.448 18.597ZM3.831 11.087L32.621 2.19702L49.266 10.916L39.763 13.851L39.76 13.852L33.659 15.736C32.9061 15.9684 32.1453 16.1745 31.378 16.354L29.21 15.72C27.8991 15.3405 26.6765 14.7051 25.6126 13.8503C24.5488 12.9955 23.6649 11.9384 23.012 10.74C22.9297 10.5902 22.8114 10.4631 22.6679 10.3701C22.5244 10.2771 22.3601 10.2212 22.1897 10.2073C22.0192 10.1935 21.848 10.2221 21.6914 10.2906C21.5347 10.3591 21.3975 10.4654 21.292 10.6C20.3616 11.7966 19.1694 12.764 17.8068 13.4279C16.4443 14.0918 14.9477 14.4347 13.432 14.43H10.392C9.66874 14.1134 8.95665 13.7719 8.257 13.406L3.831 11.087ZM23.179 19.298C25.8545 19.347 28.5268 19.0903 31.144 18.533L23.178 26.506C23.097 26.5874 23.0301 26.6817 22.98 26.785L20.181 29.586L15.404 27.08L23.179 19.298ZM20.403 19.143L13.483 26.077L9.165 23.809L14.81 18.153C16.635 18.63 18.503 18.961 20.403 19.143ZM21.963 12.963C23.232 14.7613 24.9591 16.1872 26.965 17.093C23.209 17.46 19.436 17.183 15.782 16.277C18.1284 15.8173 20.2823 14.6626 21.964 12.963H21.963ZM42.518 17.291L34.363 25.441L24.054 28.626L35.275 17.41L39.975 15.958L42.518 17.291ZM52.992 21.176C53.0108 20.9722 52.9687 20.7674 52.871 20.5876C52.7732 20.4078 52.6243 20.261 52.443 20.166L42.767 15.094L52.269 12.157C52.4644 12.0966 52.6375 11.9795 52.7663 11.8205C52.8951 11.6616 52.9739 11.468 52.9925 11.2642C53.0111 11.0605 52.9689 10.8558 52.871 10.6762C52.7732 10.4965 52.6242 10.3499 52.443 10.255L33.203 0.168021C32.9609 0.0409271 32.6782 0.0150349 32.417 0.0960209L0.828 9.85902C0.632902 9.91986 0.460208 10.0371 0.331726 10.1961C0.203243 10.355 0.124736 10.5484 0.106118 10.7519C0.0875001 10.9555 0.129607 11.1599 0.22712 11.3395C0.324633 11.5191 0.47318 11.6658 0.654 11.761L7.297 15.244C8.34089 15.7912 9.4112 16.2865 10.504 16.728L0.824 19.772C0.629358 19.8333 0.457219 19.9508 0.329299 20.1098C0.201379 20.2688 0.123408 20.4621 0.105223 20.6653C0.0870384 20.8686 0.129454 21.0726 0.22712 21.2518C0.324785 21.431 0.473325 21.5772 0.654 21.672L10.331 26.745L0.828 29.682C0.632556 29.7425 0.459461 29.8596 0.330659 30.0185C0.201856 30.1775 0.123147 30.3711 0.104509 30.5748C0.085872 30.7785 0.128146 30.9832 0.225971 31.1629C0.323796 31.3425 0.472768 31.4891 0.654 31.584L19.895 41.671C20.1368 41.798 20.4191 41.8238 20.68 41.743L32.461 38.102C32.5906 38.062 32.7111 37.9968 32.8155 37.9102C32.9199 37.8236 33.0063 37.7172 33.0696 37.5973C33.1329 37.4773 33.172 37.346 33.1846 37.2109C33.1972 37.0759 33.1831 36.9396 33.143 36.81C33.1029 36.6804 33.0378 36.5599 32.9511 36.4555C32.8645 36.3511 32.7582 36.2648 32.6382 36.2014C32.5183 36.1381 32.387 36.099 32.2519 36.0864C32.1169 36.0738 31.9806 36.088 31.851 36.128L20.477 39.643L3.83 30.917L12.925 28.106L19.895 31.759C20.1366 31.8856 20.4184 31.9115 20.679 31.831L35.197 27.344L35.207 27.341L39.966 25.871L49.266 30.746L39.756 33.684C39.4942 33.7649 39.2753 33.9465 39.1474 34.1888C39.0195 34.4311 38.9931 34.7143 39.074 34.976C39.1549 35.2378 39.3365 35.4567 39.5788 35.5846C39.8211 35.7125 40.1042 35.7389 40.366 35.658L52.27 31.98C52.4654 31.9196 52.6385 31.8025 52.7673 31.6435C52.8961 31.4846 52.9749 31.291 52.9935 31.0872C53.0121 30.8835 52.9699 30.6789 52.872 30.4992C52.7742 30.3195 52.6252 30.1729 52.444 30.078L42.767 25.005L52.27 22.068C52.67 21.945 52.955 21.593 52.993 21.176H52.992Z" fill="#BB9D60"/>
<path d="M36.103 34.86C35.832 34.86 35.565 34.97 35.373 35.163C35.1801 35.3571 35.0712 35.6193 35.07 35.893C35.0703 36.0972 35.131 36.2968 35.2446 36.4666C35.3581 36.6364 35.5195 36.7687 35.7082 36.8469C35.8968 36.9251 36.1045 36.9457 36.3048 36.906C36.5052 36.8663 36.6893 36.7682 36.834 36.624C37.0268 36.4298 37.1353 36.1676 37.136 35.894C37.136 35.622 37.026 35.355 36.834 35.163C36.64 34.9699 36.3777 34.8611 36.104 34.86H36.103Z" fill="#BB9D60"/>
</g>
<defs>
<clipPath id="clip0_1_73">
<rect width="53" height="42" fill="white"/>
</clipPath>
</defs>
</svg>

<svg width="53" height="42" fill="none" xmlns="http://www.w3.org/2000/svg"><g clip-path="url(#clip0_1_73)" fill="#BB9D60"><path d="M39.763 23.761l-.004.001-1.172.362 5.838-5.828 4.841 2.533-9.503 2.932zm-28.315-5.164l-4.2 4.2-3.433-1.8 7.633-2.4zm-7.617-7.51l28.79-8.89 16.645 8.719-9.503 2.935-.003.001-6.101 1.884a34.58 34.58 0 01-2.281.618l-2.168-.634a10.33 10.33 0 01-6.198-4.98 1.035 1.035 0 00-1.72-.14 9.917 9.917 0 01-7.86 3.83h-3.04a34.201 34.201 0 01-2.135-1.024l-4.426-2.319zm19.348 8.211a35.153 35.153 0 007.965-.765l-7.966 7.973a1.037 1.037 0 00-.198.279l-2.799 2.801-4.777-2.506 7.775-7.782zm-2.776-.155l-6.92 6.934-4.318-2.268 5.645-5.656c1.825.477 3.693.808 5.593.99zm1.56-6.18a12.335 12.335 0 005.002 4.13c-3.756.367-7.529.09-11.183-.816 2.346-.46 4.5-1.614 6.182-3.314h-.001zm20.555 4.328l-8.155 8.15-10.309 3.185L35.275 17.41l4.7-1.452 2.543 1.333zm10.474 3.885a1.034 1.034 0 00-.549-1.01l-9.676-5.072 9.502-2.937a1.032 1.032 0 00.174-1.902L33.203.168a1.033 1.033 0 00-.786-.072L.828 9.859a1.034 1.034 0 00-.174 1.902l6.643 3.483a35.76 35.76 0 003.207 1.484l-9.68 3.044a1.033 1.033 0 00-.17 1.9l9.677 5.073-9.503 2.937a1.034 1.034 0 00-.174 1.902l19.241 10.087c.242.127.524.153.785.072l11.781-3.641a1.032 1.032 0 10-.61-1.974l-11.374 3.515L3.83 30.917l9.095-2.811 6.97 3.653c.242.127.523.152.784.072l14.518-4.487.01-.003 4.759-1.47 9.3 4.875-9.51 2.938a1.033 1.033 0 00.61 1.974L52.27 31.98a1.032 1.032 0 00.174-1.902l-9.677-5.073 9.503-2.937c.4-.123.685-.475.723-.892h-.001z"/><path d="M36.103 34.86a1.038 1.038 0 00-1.033 1.033 1.034 1.034 0 001.764.731 1.04 1.04 0 00.302-.73c0-.272-.11-.539-.302-.731a1.04 1.04 0 00-.73-.303h-.001z"/></g><defs><clipPath id="clip0_1_73"><path fill="#fff" d="M0 0h53v42H0z"/></clipPath></defs></svg>
